X: 365
T:Bishop MacDonald in D
M:4/4
L:1/8
Q:120
R:reel
N:flute player PG Mulvaney from harper Elaine Fortin
N:from Rankin Family from K Burke? from Ed Pearlman
N: from CB fdlr Paul MacDonald, whence?
Z:PG Mulvaney
K:D
FG| A2 AF A2 Bc| d&gt;e (3dcB (3AFB BA | B2 de f2 ed | BA FE FA AF |
M:2/4
L:1/8
Q:120
A2 Bc|
M:4/4
L:1/8
Q:120
| d&gt;e (3dcB (3AFB BA | B2 (3Bcd F2 G&lt;E2|
M:2/4
L:1/8
Q:120
D2-DG|
M:4/4
L:1/8
Q:120
A2 AF A2 Bc | de dB B2 BA | B2 de f2 ed | BA FE FA AF |
M:2/4
L:1/8
Q:120
A2 Bc|
M:4/4
L:1/8
Q:120
| d&gt;e (3dcB (3AFB BA  | B2 Bd F2 E2 |
M:2/4
L:1/8
Q:120
D2-Dg |
M:4/4
L:1/8
Q:120
fa ab a2 fd | fb ba b2 (3abc' | d'2 fa b2 de | f2 ed BA FE |
fa ab a2 fd | fb ba b2 (3abc' | d'2 fa b2 de | f2 e2 d4||

